src/components/Icon/svg-icon/main/settings-gear.svg

<svg xmlns="http://www.w3.org/2000/svg" width="24" height="24" viewBox="0 0 24 24">
  <path fill="#677078" d="M18.8851615,12.8775 C18.9198766,12.59625 18.94302,12.30375 18.94302,12 C18.94302,11.69625 18.9198766,11.40375 18.8735898,11.1225 L20.8292071,9.6375 C21.0027826,9.5025 21.0490694,9.255 20.9449241,9.06375 L19.0934521,5.9475 C18.9777351,5.745 18.7347294,5.6775 18.5264388,5.745 L16.2236705,6.645 C15.7376591,6.285 15.2285043,5.9925 14.661491,5.7675 L14.31434,3.3825 C14.2796249,3.1575 14.082906,3 13.851472,3 L10.148528,3 C9.917094,3 9.7319468,3.1575 9.6972317,3.3825 L9.35008069,5.7675 C8.78306739,5.9925 8.26234089,6.29625 7.78790119,6.645 L5.48513289,5.745 C5.27684229,5.66625 5.03383659,5.745 4.91811959,5.9475 L3.06664758,9.06375 C2.95093058,9.26625 2.99721738,9.5025 3.18236458,9.6375 L5.13798189,11.1225 C5.09169509,11.40375 5.05697999,11.7075 5.05697999,12 C5.05697999,12.2925 5.08012339,12.59625 5.12641019,12.8775 L3.17079288,14.3625 C2.99721738,14.4975 2.95093058,14.745 3.05507588,14.93625 L4.90654789,18.0525 C5.02226489,18.255 5.26527059,18.3225 5.47356119,18.255 L7.77632949,17.355 C8.26234089,17.715 8.77149569,18.0075 9.33850899,18.2325 L9.68566,20.6175 C9.7319468,20.8425 9.917094,21 10.148528,21 L13.851472,21 C14.082906,21 14.2796249,20.8425 14.3027683,20.6175 L14.6499193,18.2325 C15.2169326,18.0075 15.7376591,17.70375 16.2120988,17.355 L18.5148671,18.255 C18.7231577,18.33375 18.9661634,18.255 19.0818804,18.0525 L20.9333524,14.93625 C21.0490694,14.73375 21.0027826,14.4975 20.8176354,14.3625 L18.8851615,12.8775 L18.8851615,12.8775 Z M12,15.375 C10.0906695,15.375 8.52848999,13.85625 8.52848999,12 C8.52848999,10.14375 10.0906695,8.625 12,8.625 C13.9093305,8.625 15.47151,10.14375 15.47151,12 C15.47151,13.85625 13.9093305,15.375 12,15.375 Z"/>
</svg>

<svg xmlns="http://www.w3.org/2000/svg" width="24" height="24"><path fill="#677078" d="M18.885 12.877c.035-.28.058-.573.058-.877 0-.304-.023-.596-.07-.877l1.956-1.486a.456.456 0 00.116-.573l-1.852-3.117a.477.477 0 00-.567-.202l-2.302.9a6.83 6.83 0 00-1.563-.877l-.347-2.385A.458.458 0 0013.851 3H10.15a.446.446 0 00-.452.382L9.35 5.768a7.012 7.012 0 00-1.562.878l-2.303-.9a.464.464 0 00-.567.202L3.067 9.064a.428.428 0 00.115.573l1.956 1.486a5.502 5.502 0 00-.081.877c0 .293.023.596.07.877L3.17 14.364a.456.456 0 00-.116.573l1.852 3.116c.115.203.358.27.567.203l2.302-.9c.486.36.995.652 1.563.878l.347 2.384a.467.467 0 00.463.383h3.702c.232 0 .429-.157.452-.383l.347-2.384a7.012 7.012 0 001.562-.878l2.303.9c.208.079.451 0 .567-.203l1.851-3.116a.428.428 0 00-.115-.573l-1.933-1.486zM12 15.375c-1.91 0-3.472-1.519-3.472-3.375S10.091 8.625 12 8.625c1.91 0 3.472 1.519 3.472 3.375S13.909 15.375 12 15.375z"/></svg>
